<?xml version="1.0" encoding="UTF-8"?>
<map version="1.10" tiledversion="1.11.0" orientation="orthogonal" renderorder="right-down" width="64" height="24" tilewidth="32" tileheight="32" infinite="0" nextlayerid="11" nextobjectid="89">
 <tileset firstgid="1" name="tmw_desert_spacing" tilewidth="32" tileheight="32" spacing="1" margin="1" tilecount="48" columns="8">
  <image source="tmw_desert_spacing.png" width="265" height="199"/>
  <wangsets>
   <wangset name="Brick" type="corner" tile="9">
    <wangcolor name="" color="#ff0000" tile="-1" probability="1"/>
    <wangtile tileid="0" wangid="0,0,0,1,0,0,0,0"/>
    <wangtile tileid="1" wangid="0,0,0,1,0,1,0,0"/>
    <wangtile tileid="2" wangid="0,0,0,0,0,1,0,0"/>
    <wangtile tileid="8" wangid="0,1,0,1,0,0,0,0"/>
    <wangtile tileid="9" wangid="0,1,0,1,0,1,0,1"/>
    <wangtile tileid="10" wangid="0,0,0,0,0,1,0,1"/>
    <wangtile tileid="16" wangid="0,1,0,0,0,0,0,0"/>
    <wangtile tileid="17" wangid="0,1,0,0,0,0,0,1"/>
    <wangtile tileid="18" wangid="0,0,0,0,0,0,0,1"/>
    <wangtile tileid="19" wangid="0,1,0,0,0,1,0,1"/>
    <wangtile tileid="20" wangid="0,1,0,1,0,0,0,1"/>
    <wangtile tileid="27" wangid="0,0,0,1,0,1,0,1"/>
    <wangtile tileid="28" wangid="0,1,0,1,0,1,0,0"/>
   </wangset>
   <wangset name="Marble" type="corner" tile="33">
    <wangcolor name="" color="#ff0000" tile="-1" probability="1"/>
    <wangtile tileid="24" wangid="0,0,0,1,0,0,0,0"/>
    <wangtile tileid="25" wangid="0,0,0,1,0,1,0,0"/>
    <wangtile tileid="26" wangid="0,0,0,0,0,1,0,0"/>
    <wangtile tileid="32" wangid="0,1,0,1,0,0,0,0"/>
    <wangtile tileid="33" wangid="0,1,0,1,0,1,0,1"/>
    <wangtile tileid="34" wangid="0,0,0,0,0,1,0,1"/>
    <wangtile tileid="35" wangid="0,1,0,0,0,1,0,1"/>
    <wangtile tileid="36" wangid="0,1,0,1,0,0,0,1"/>
    <wangtile tileid="40" wangid="0,1,0,0,0,0,0,0"/>
    <wangtile tileid="41" wangid="0,1,0,0,0,0,0,1"/>
    <wangtile tileid="42" wangid="0,0,0,0,0,0,0,1"/>
    <wangtile tileid="43" wangid="0,0,0,1,0,1,0,1"/>
    <wangtile tileid="44" wangid="0,1,0,1,0,1,0,0"/>
   </wangset>
   <wangset name="Sand" type="corner" tile="14">
    <wangcolor name="" color="#ff0000" tile="29" probability="1"/>
    <wangtile tileid="3" wangid="0,1,0,0,0,1,0,1"/>
    <wangtile tileid="4" wangid="0,1,0,1,0,0,0,1"/>
    <wangtile tileid="5" wangid="0,0,0,1,0,0,0,0"/>
    <wangtile tileid="6" wangid="0,0,0,1,0,1,0,0"/>
    <wangtile tileid="7" wangid="0,0,0,0,0,1,0,0"/>
    <wangtile tileid="11" wangid="0,0,0,1,0,1,0,1"/>
    <wangtile tileid="12" wangid="0,1,0,1,0,1,0,0"/>
    <wangtile tileid="13" wangid="0,1,0,1,0,0,0,0"/>
    <wangtile tileid="14" wangid="0,1,0,1,0,1,0,1"/>
    <wangtile tileid="15" wangid="0,0,0,0,0,1,0,1"/>
    <wangtile tileid="21" wangid="0,1,0,0,0,0,0,0"/>
    <wangtile tileid="22" wangid="0,1,0,0,0,0,0,1"/>
    <wangtile tileid="23" wangid="0,0,0,0,0,0,0,1"/>
   </wangset>
  </wangsets>
 </tileset>
 <tileset firstgid="49" name="MapMetadata" tilewidth="32" tileheight="32" spacing="1" margin="1" tilecount="2" columns="2">
  <image source="MapMetadata.png" width="67" height="34"/>
 </tileset>
 <tileset firstgid="51" name="TX Tileset Ground" tilewidth="32" tileheight="32" tilecount="256" columns="16">
  <image source="TX Tileset Ground.png" width="512" height="512"/>
 </tileset>
 <tileset firstgid="307" name="TX Village Props" tilewidth="32" tileheight="32" tilecount="1024" columns="32">
  <image source="TX Village Props.png" width="1024" height="1024"/>
 </tileset>
 <layer id="1" name="Map" width="64" height="24">
  <properties>
   <property name="Draw" type="bool" value="true"/>
  </properties>
  <data>
   <tile gid="69"/>
   <tile/>
   <tile/>
   <tile/>
   <tile/>
   <tile/>
   <tile/>
   <tile/>
   <tile/>
   <tile/>
   <tile/>
   <tile/>
   <tile/>
   <tile/>
   <tile/>
   <tile/>
   <tile/>
   <tile/>
   <tile/>
   <tile/>
   <tile/>
   <tile/>
   <tile/>
   <tile/>
   <tile/>
   <tile/>
   <tile/>
   <tile/>
   <tile/>
   <tile/>
   <tile/>
   <tile/>
   <tile/>
   <tile/>
   <tile/>
   <tile/>
   <tile/>
   <tile/>
   <tile/>
   <tile/>
   <tile/>
   <tile/>
   <tile/>
   <tile/>
   <tile/>
   <tile/>
   <tile/>
   <tile/>
   <tile/>
   <tile/>
   <tile/>
   <tile/>
   <tile/>
   <tile gid="371"/>
   <tile gid="371"/>
   <tile gid="371"/>
   <tile/>
   <tile/>
   <tile/>
   <tile/>
   <tile/>
   <tile/>
   <tile/>
   <tile/>
   <tile gid="162"/>
   <tile/>
   <tile/>
   <tile/>
   <tile/>
   <tile/>
   <tile/>
   <tile/>
   <tile/>
   <tile/>
   <tile/>
   <tile/>
   <tile/>
   <tile/>
   <tile/>
   <tile/>
   <tile/>
   <tile/>
   <tile/>
   <tile/>
   <tile/>
   <tile/>
   <tile/>
   <tile/>
   <tile/>
   <tile/>
   <tile/>
   <tile/>
   <tile/>
   <tile/>
   <tile/>
   <tile/>
   <tile/>
   <tile/>
   <tile/>
   <tile/>
   <tile/>
   <tile/>
   <tile/>
   <tile/>
   <tile/>
   <tile/>
   <tile/>
   <tile/>
   <tile/>
   <tile/>
   <tile/>
   <tile/>
   <tile/>
   <tile/>
   <tile/>
   <tile/>
   <tile gid="371"/>
   <tile gid="371"/>
   <tile gid="371"/>
   <tile gid="371"/>
   <tile/>
   <tile/>
   <tile/>
   <tile/>
   <tile/>
   <tile/>
   <tile/>
   <tile/>
   <tile gid="69"/>
   <tile/>
   <tile/>
   <tile/>
   <tile/>
   <tile/>
   <tile/>
   <tile/>
   <tile/>
   <tile/>
   <tile/>
   <tile/>
   <tile/>
   <tile/>
   <tile/>
   <tile/>
   <tile/>
   <tile/>
   <tile/>
   <tile/>
   <tile/>
   <tile/>
   <tile gid="781"/>
   <tile gid="782"/>
   <tile gid="783"/>
   <tile gid="784"/>
   <tile gid="785"/>
   <tile gid="780"/>
   <tile/>
   <tile/>
   <tile/>
   <tile/>
   <tile/>
   <tile/>
   <tile/>
   <tile/>
   <tile/>
   <tile/>
   <tile/>
   <tile/>
   <tile gid="102"/>
   <tile gid="102"/>
   <tile gid="102"/>
   <tile gid="102"/>
   <tile gid="102"/>
   <tile gid="102"/>
   <tile gid="102"/>
   <tile gid="102"/>
   <tile gid="102"/>
   <tile gid="102"/>
   <tile gid="102"/>
   <tile/>
   <tile/>
   <tile/>
   <tile gid="102"/>
   <tile gid="371"/>
   <tile gid="371"/>
   <tile gid="371"/>
   <tile gid="102"/>
   <tile gid="102"/>
   <tile gid="102"/>
   <tile gid="102"/>
   <tile gid="102"/>
   <tile/>
   <tile gid="69"/>
   <tile/>
   <tile/>
   <tile/>
   <tile/>
   <tile/>
   <tile/>
   <tile/>
   <tile/>
   <tile/>
   <tile/>
   <tile/>
   <tile/>
   <tile/>
   <tile/>
   <tile/>
   <tile/>
   <tile/>
   <tile/>
   <tile/>
   <tile/>
   <tile/>
   <tile gid="813"/>
   <tile gid="814"/>
   <tile gid="815"/>
   <tile gid="816"/>
   <tile gid="817"/>
   <tile gid="748"/>
   <tile/>
   <tile/>
   <tile/>
   <tile/>
   <tile/>
   <tile/>
   <tile/>
   <tile/>
   <tile/>
   <tile/>
   <tile/>
   <tile/>
   <tile/>
   <tile/>
   <tile/>
   <tile/>
   <tile/>
   <tile/>
   <tile/>
   <tile/>
   <tile gid="102"/>
   <tile gid="102"/>
   <tile gid="886"/>
   <tile/>
   <tile/>
   <tile/>
   <tile gid="102"/>
   <tile gid="102"/>
   <tile/>
   <tile gid="371"/>
   <tile gid="371"/>
   <tile/>
   <tile gid="102"/>
   <tile gid="102"/>
   <tile gid="102"/>
   <tile gid="102"/>
   <tile gid="69"/>
   <tile/>
   <tile/>
   <tile/>
   <tile gid="565"/>
   <tile gid="565"/>
   <tile gid="565"/>
   <tile gid="565"/>
   <tile/>
   <tile/>
   <tile/>
   <tile/>
   <tile gid="468"/>
   <tile gid="469"/>
   <tile gid="470"/>
   <tile/>
   <tile/>
   <tile/>
   <tile/>
   <tile/>
   <tile gid="394"/>
   <tile/>
   <tile gid="845"/>
   <tile gid="846"/>
   <tile gid="847"/>
   <tile gid="848"/>
   <tile gid="849"/>
   <tile gid="748"/>
   <tile gid="645"/>
   <tile/>
   <tile/>
   <tile/>
   <tile/>
   <tile/>
   <tile/>
   <tile/>
   <tile/>
   <tile gid="102"/>
   <tile gid="102"/>
   <tile gid="102"/>
   <tile gid="102"/>
   <tile gid="102"/>
   <tile gid="102"/>
   <tile gid="102"/>
   <tile gid="102"/>
   <tile/>
   <tile/>
   <tile/>
   <tile gid="105"/>
   <tile gid="108"/>
   <tile gid="52"/>
   <tile gid="52"/>
   <tile gid="52"/>
   <tile gid="52"/>
   <tile gid="52"/>
   <tile gid="52"/>
   <tile gid="52"/>
   <tile gid="52"/>
   <tile gid="52"/>
   <tile gid="52"/>
   <tile gid="52"/>
   <tile gid="52"/>
   <tile gid="52"/>
   <tile gid="52"/>
   <tile gid="235"/>
   <tile gid="345"/>
   <tile gid="478"/>
   <tile/>
   <tile gid="565"/>
   <tile gid="565"/>
   <tile gid="565"/>
   <tile gid="565"/>
   <tile/>
   <tile/>
   <tile/>
   <tile/>
   <tile gid="500"/>
   <tile gid="501"/>
   <tile gid="502"/>
   <tile/>
   <tile/>
   <tile/>
   <tile/>
   <tile/>
   <tile gid="394"/>
   <tile/>
   <tile gid="877"/>
   <tile gid="878"/>
   <tile gid="879"/>
   <tile gid="880"/>
   <tile gid="881"/>
   <tile gid="876"/>
   <tile gid="869"/>
   <tile gid="870"/>
   <tile gid="871"/>
   <tile gid="867"/>
   <tile/>
   <tile/>
   <tile/>
   <tile/>
   <tile/>
   <tile/>
   <tile/>
   <tile/>
   <tile/>
   <tile/>
   <tile/>
   <tile/>
   <tile gid="102"/>
   <tile gid="102"/>
   <tile gid="102"/>
   <tile gid="102"/>
   <tile gid="102"/>
   <tile gid="86"/>
   <tile gid="79"/>
   <tile gid="117"/>
   <tile gid="126"/>
   <tile gid="126"/>
   <tile gid="126"/>
   <tile gid="126"/>
   <tile gid="126"/>
   <tile gid="126"/>
   <tile gid="126"/>
   <tile gid="154"/>
   <tile gid="154"/>
   <tile gid="154"/>
   <tile gid="154"/>
   <tile gid="154"/>
   <tile gid="219"/>
   <tile gid="345"/>
   <tile gid="343"/>
   <tile/>
   <tile gid="574"/>
   <tile gid="575"/>
   <tile gid="565"/>
   <tile gid="492"/>
   <tile/>
   <tile/>
   <tile/>
   <tile gid="535"/>
   <tile gid="532"/>
   <tile gid="533"/>
   <tile gid="534"/>
   <tile/>
   <tile/>
   <tile/>
   <tile/>
   <tile/>
   <tile gid="394"/>
   <tile/>
   <tile gid="909"/>
   <tile gid="910"/>
   <tile gid="911"/>
   <tile gid="912"/>
   <tile gid="913"/>
   <tile gid="908"/>
   <tile gid="901"/>
   <tile gid="902"/>
   <tile gid="903"/>
   <tile gid="770"/>
   <tile gid="770"/>
   <tile/>
   <tile/>
   <tile/>
   <tile gid="660"/>
   <tile gid="660"/>
   <tile/>
   <tile/>
   <tile/>
   <tile/>
   <tile/>
   <tile/>
   <tile gid="102"/>
   <tile gid="102"/>
   <tile gid="102"/>
   <tile gid="102"/>
   <tile/>
   <tile/>
   <tile gid="86"/>
   <tile gid="79"/>
   <tile gid="116"/>
   <tile gid="84"/>
   <tile gid="84"/>
   <tile gid="84"/>
   <tile gid="117"/>
   <tile gid="154"/>
   <tile gid="154"/>
   <tile gid="154"/>
   <tile gid="154"/>
   <tile gid="154"/>
   <tile gid="154"/>
   <tile gid="154"/>
   <tile gid="147"/>
   <tile gid="200"/>
   <tile gid="200"/>
   <tile gid="200"/>
   <tile gid="200"/>
   <tile gid="200"/>
   <tile gid="200"/>
   <tile gid="200"/>
   <tile gid="200"/>
   <tile gid="200"/>
   <tile gid="200"/>
   <tile gid="200"/>
   <tile gid="200"/>
   <tile gid="200"/>
   <tile gid="200"/>
   <tile gid="200"/>
   <tile gid="56"/>
   <tile gid="307"/>
   <tile gid="307"/>
   <tile gid="307"/>
   <tile gid="55"/>
   <tile gid="52"/>
   <tile gid="52"/>
   <tile gid="52"/>
   <tile gid="52"/>
   <tile gid="52"/>
   <tile gid="52"/>
   <tile gid="52"/>
   <tile gid="52"/>
   <tile gid="52"/>
   <tile gid="52"/>
   <tile gid="52"/>
   <tile gid="52"/>
   <tile gid="52"/>
   <tile gid="53"/>
   <tile gid="726"/>
   <tile gid="660"/>
   <tile gid="660"/>
   <tile/>
   <tile/>
   <tile/>
   <tile/>
   <tile/>
   <tile/>
   <tile/>
   <tile/>
   <tile/>
   <tile/>
   <tile/>
   <tile/>
   <tile/>
   <tile gid="118"/>
   <tile gid="118"/>
   <tile gid="118"/>
   <tile gid="118"/>
   <tile gid="118"/>
   <tile gid="79"/>
   <tile gid="84"/>
   <tile gid="117"/>
   <tile gid="154"/>
   <tile gid="154"/>
   <tile gid="154"/>
   <tile gid="154"/>
   <tile gid="154"/>
   <tile gid="68"/>
   <tile gid="68"/>
   <tile gid="68"/>
   <tile gid="68"/>
   <tile gid="68"/>
   <tile gid="68"/>
   <tile gid="68"/>
   <tile gid="68"/>
   <tile gid="68"/>
   <tile gid="68"/>
   <tile gid="68"/>
   <tile gid="68"/>
   <tile gid="68"/>
   <tile gid="68"/>
   <tile gid="68"/>
   <tile gid="68"/>
   <tile gid="147"/>
   <tile gid="145"/>
   <tile gid="145"/>
   <tile gid="145"/>
   <tile gid="149"/>
   <tile gid="68"/>
   <tile gid="68"/>
   <tile gid="68"/>
   <tile gid="68"/>
   <tile gid="68"/>
   <tile gid="68"/>
   <tile gid="68"/>
   <tile gid="68"/>
   <tile gid="68"/>
   <tile gid="68"/>
   <tile gid="68"/>
   <tile gid="68"/>
   <tile gid="68"/>
   <tile gid="69"/>
   <tile/>
   <tile/>
   <tile/>
   <tile/>
   <tile/>
   <tile/>
   <tile/>
   <tile/>
   <tile/>
   <tile/>
   <tile/>
   <tile/>
   <tile gid="102"/>
   <tile gid="102"/>
   <tile gid="102"/>
   <tile gid="102"/>
   <tile/>
   <tile/>
   <tile/>
   <tile gid="102"/>
   <tile gid="102"/>
   <tile gid="102"/>
   <tile gid="102"/>
   <tile gid="79"/>
   <tile gid="84"/>
   <tile gid="84"/>
   <tile gid="84"/>
   <tile gid="84"/>
   <tile gid="84"/>
   <tile gid="68"/>
   <tile gid="68"/>
   <tile gid="68"/>
   <tile gid="159"/>
   <tile gid="68"/>
   <tile gid="68"/>
   <tile gid="68"/>
   <tile gid="68"/>
   <tile gid="68"/>
   <tile gid="68"/>
   <tile gid="174"/>
   <tile gid="68"/>
   <tile gid="68"/>
   <tile gid="68"/>
   <tile gid="68"/>
   <tile gid="68"/>
   <tile gid="115"/>
   <tile gid="116"/>
   <tile gid="116"/>
   <tile gid="116"/>
   <tile gid="117"/>
   <tile gid="68"/>
   <tile gid="68"/>
   <tile gid="68"/>
   <tile gid="68"/>
   <tile gid="68"/>
   <tile gid="68"/>
   <tile gid="68"/>
   <tile gid="142"/>
   <tile gid="68"/>
   <tile gid="68"/>
   <tile gid="143"/>
   <tile gid="68"/>
   <tile gid="68"/>
   <tile gid="69"/>
   <tile/>
   <tile/>
   <tile/>
   <tile/>
   <tile/>
   <tile/>
   <tile/>
   <tile/>
   <tile/>
   <tile/>
   <tile/>
   <tile/>
   <tile/>
   <tile gid="102"/>
   <tile gid="102"/>
   <tile gid="102"/>
   <tile gid="102"/>
   <tile gid="102"/>
   <tile gid="102"/>
   <tile gid="102"/>
   <tile gid="102"/>
   <tile gid="102"/>
   <tile gid="102"/>
   <tile/>
   <tile/>
   <tile gid="102"/>
   <tile/>
   <tile gid="102"/>
   <tile gid="102"/>
   <tile gid="68"/>
   <tile gid="68"/>
   <tile gid="68"/>
   <tile gid="68"/>
   <tile gid="68"/>
   <tile gid="68"/>
   <tile gid="68"/>
   <tile gid="68"/>
   <tile gid="68"/>
   <tile gid="68"/>
   <tile gid="68"/>
   <tile gid="68"/>
   <tile gid="68"/>
   <tile gid="68"/>
   <tile gid="68"/>
   <tile gid="68"/>
   <tile gid="131"/>
   <tile/>
   <tile/>
   <tile/>
   <tile gid="153"/>
   <tile gid="68"/>
   <tile gid="68"/>
   <tile gid="68"/>
   <tile gid="68"/>
   <tile gid="68"/>
   <tile gid="68"/>
   <tile gid="68"/>
   <tile gid="68"/>
   <tile gid="68"/>
   <tile gid="68"/>
   <tile gid="68"/>
   <tile gid="68"/>
   <tile gid="68"/>
   <tile gid="69"/>
   <tile/>
   <tile/>
   <tile/>
   <tile/>
   <tile/>
   <tile/>
   <tile/>
   <tile/>
   <tile/>
   <tile/>
   <tile/>
   <tile gid="102"/>
   <tile gid="102"/>
   <tile/>
   <tile gid="102"/>
   <tile gid="102"/>
   <tile gid="102"/>
   <tile gid="102"/>
   <tile gid="102"/>
   <tile gid="102"/>
   <tile gid="102"/>
   <tile gid="102"/>
   <tile gid="102"/>
   <tile gid="102"/>
   <tile gid="102"/>
   <tile gid="102"/>
   <tile gid="102"/>
   <tile gid="102"/>
   <tile/>
   <tile gid="68"/>
   <tile gid="68"/>
   <tile gid="68"/>
   <tile gid="68"/>
   <tile gid="68"/>
   <tile gid="68"/>
   <tile gid="68"/>
   <tile gid="68"/>
   <tile gid="68"/>
   <tile gid="68"/>
   <tile gid="68"/>
   <tile gid="68"/>
   <tile gid="68"/>
   <tile gid="68"/>
   <tile gid="68"/>
   <tile gid="68"/>
   <tile gid="131"/>
   <tile/>
   <tile/>
   <tile/>
   <tile gid="153"/>
   <tile gid="68"/>
   <tile gid="159"/>
   <tile gid="68"/>
   <tile gid="68"/>
   <tile gid="68"/>
   <tile gid="68"/>
   <tile gid="68"/>
   <tile gid="68"/>
   <tile gid="68"/>
   <tile gid="68"/>
   <tile gid="68"/>
   <tile gid="68"/>
   <tile gid="68"/>
   <tile gid="69"/>
   <tile/>
   <tile/>
   <tile/>
   <tile/>
   <tile/>
   <tile/>
   <tile/>
   <tile/>
   <tile/>
   <tile/>
   <tile/>
   <tile gid="102"/>
   <tile/>
   <tile/>
   <tile gid="102"/>
   <tile gid="102"/>
   <tile gid="102"/>
   <tile gid="102"/>
   <tile gid="102"/>
   <tile/>
   <tile gid="102"/>
   <tile/>
   <tile gid="102"/>
   <tile gid="102"/>
   <tile/>
   <tile/>
   <tile/>
   <tile/>
   <tile/>
   <tile gid="68"/>
   <tile gid="68"/>
   <tile gid="68"/>
   <tile gid="68"/>
   <tile gid="68"/>
   <tile gid="68"/>
   <tile gid="68"/>
   <tile gid="68"/>
   <tile gid="68"/>
   <tile gid="68"/>
   <tile gid="68"/>
   <tile gid="68"/>
   <tile gid="142"/>
   <tile gid="68"/>
   <tile gid="68"/>
   <tile gid="68"/>
   <tile gid="131"/>
   <tile/>
   <tile/>
   <tile/>
   <tile gid="153"/>
   <tile gid="68"/>
   <tile gid="68"/>
   <tile gid="68"/>
   <tile gid="68"/>
   <tile gid="68"/>
   <tile gid="68"/>
   <tile gid="68"/>
   <tile gid="68"/>
   <tile gid="68"/>
   <tile gid="174"/>
   <tile gid="68"/>
   <tile gid="174"/>
   <tile gid="68"/>
   <tile gid="69"/>
   <tile/>
   <tile/>
   <tile/>
   <tile/>
   <tile/>
   <tile/>
   <tile/>
   <tile/>
   <tile/>
   <tile/>
   <tile/>
   <tile/>
   <tile/>
   <tile/>
   <tile/>
   <tile gid="102"/>
   <tile gid="102"/>
   <tile gid="102"/>
   <tile gid="102"/>
   <tile gid="103"/>
   <tile gid="103"/>
   <tile gid="103"/>
   <tile gid="102"/>
   <tile gid="102"/>
   <tile/>
   <tile/>
   <tile/>
   <tile/>
   <tile/>
   <tile gid="68"/>
   <tile gid="68"/>
   <tile gid="68"/>
   <tile gid="68"/>
   <tile gid="68"/>
   <tile gid="68"/>
   <tile gid="68"/>
   <tile gid="68"/>
   <tile gid="68"/>
   <tile gid="68"/>
   <tile gid="68"/>
   <tile gid="68"/>
   <tile gid="68"/>
   <tile gid="68"/>
   <tile gid="68"/>
   <tile gid="68"/>
   <tile gid="131"/>
   <tile gid="435"/>
   <tile gid="435"/>
   <tile gid="435"/>
   <tile gid="153"/>
   <tile gid="68"/>
   <tile gid="68"/>
   <tile gid="68"/>
   <tile gid="68"/>
   <tile gid="68"/>
   <tile gid="68"/>
   <tile gid="68"/>
   <tile gid="68"/>
   <tile gid="68"/>
   <tile gid="68"/>
   <tile gid="68"/>
   <tile gid="68"/>
   <tile gid="68"/>
   <tile gid="69"/>
   <tile/>
   <tile/>
   <tile/>
   <tile/>
   <tile/>
   <tile/>
   <tile gid="102"/>
   <tile gid="102"/>
   <tile gid="103"/>
   <tile gid="103"/>
   <tile gid="103"/>
   <tile gid="103"/>
   <tile gid="103"/>
   <tile gid="103"/>
   <tile gid="103"/>
   <tile/>
   <tile/>
   <tile/>
   <tile/>
   <tile/>
   <tile/>
   <tile/>
   <tile gid="102"/>
   <tile gid="102"/>
   <tile gid="103"/>
   <tile gid="103"/>
   <tile/>
   <tile/>
   <tile/>
   <tile gid="435"/>
   <tile gid="435"/>
   <tile gid="435"/>
   <tile gid="435"/>
   <tile gid="435"/>
   <tile gid="435"/>
   <tile gid="435"/>
   <tile gid="435"/>
   <tile gid="435"/>
   <tile gid="435"/>
   <tile gid="435"/>
   <tile gid="435"/>
   <tile gid="435"/>
   <tile gid="435"/>
   <tile gid="435"/>
   <tile gid="435"/>
   <tile gid="435"/>
   <tile gid="435"/>
   <tile gid="435"/>
   <tile gid="435"/>
   <tile gid="435"/>
   <tile/>
   <tile/>
   <tile/>
   <tile/>
   <tile/>
   <tile/>
   <tile/>
   <tile/>
   <tile/>
   <tile/>
   <tile/>
   <tile/>
   <tile/>
   <tile/>
   <tile/>
   <tile/>
   <tile/>
   <tile/>
   <tile/>
   <tile/>
   <tile/>
   <tile/>
   <tile/>
   <tile/>
   <tile/>
   <tile/>
   <tile/>
   <tile/>
   <tile gid="103"/>
   <tile/>
   <tile/>
   <tile/>
   <tile/>
   <tile/>
   <tile/>
   <tile/>
   <tile gid="102"/>
   <tile/>
   <tile/>
   <tile/>
   <tile gid="103"/>
   <tile gid="103"/>
   <tile gid="103"/>
   <tile gid="435"/>
   <tile gid="435"/>
   <tile gid="435"/>
   <tile gid="435"/>
   <tile gid="435"/>
   <tile gid="435"/>
   <tile gid="435"/>
   <tile gid="435"/>
   <tile gid="435"/>
   <tile gid="435"/>
   <tile gid="435"/>
   <tile gid="435"/>
   <tile gid="435"/>
   <tile gid="435"/>
   <tile gid="435"/>
   <tile gid="435"/>
   <tile gid="435"/>
   <tile gid="435"/>
   <tile gid="435"/>
   <tile gid="435"/>
   <tile gid="435"/>
   <tile gid="435"/>
   <tile/>
   <tile/>
   <tile/>
   <tile/>
   <tile/>
   <tile/>
   <tile/>
   <tile/>
   <tile/>
   <tile/>
   <tile/>
   <tile/>
   <tile/>
   <tile/>
   <tile/>
   <tile/>
   <tile/>
   <tile/>
   <tile/>
   <tile gid="102"/>
   <tile gid="102"/>
   <tile gid="102"/>
   <tile gid="102"/>
   <tile/>
   <tile/>
   <tile/>
   <tile/>
   <tile gid="103"/>
   <tile/>
   <tile/>
   <tile/>
   <tile/>
   <tile/>
   <tile/>
   <tile gid="102"/>
   <tile gid="102"/>
   <tile/>
   <tile/>
   <tile/>
   <tile/>
   <tile/>
   <tile gid="103"/>
   <tile gid="435"/>
   <tile gid="435"/>
   <tile gid="435"/>
   <tile gid="435"/>
   <tile gid="435"/>
   <tile gid="435"/>
   <tile gid="435"/>
   <tile gid="435"/>
   <tile gid="435"/>
   <tile gid="435"/>
   <tile gid="435"/>
   <tile gid="435"/>
   <tile gid="435"/>
   <tile gid="435"/>
   <tile gid="435"/>
   <tile gid="435"/>
   <tile gid="435"/>
   <tile gid="435"/>
   <tile gid="435"/>
   <tile gid="435"/>
   <tile gid="435"/>
   <tile gid="435"/>
   <tile gid="435"/>
   <tile/>
   <tile/>
   <tile/>
   <tile/>
   <tile/>
   <tile/>
   <tile/>
   <tile/>
   <tile/>
   <tile/>
   <tile/>
   <tile/>
   <tile/>
   <tile/>
   <tile/>
   <tile/>
   <tile/>
   <tile/>
   <tile/>
   <tile/>
   <tile/>
   <tile/>
   <tile/>
   <tile/>
   <tile gid="103"/>
   <tile gid="103"/>
   <tile gid="103"/>
   <tile/>
   <tile/>
   <tile/>
   <tile/>
   <tile/>
   <tile/>
   <tile gid="102"/>
   <tile/>
   <tile/>
   <tile gid="103"/>
   <tile gid="103"/>
   <tile gid="103"/>
   <tile gid="103"/>
   <tile gid="103"/>
   <tile gid="435"/>
   <tile gid="435"/>
   <tile gid="435"/>
   <tile gid="435"/>
   <tile gid="435"/>
   <tile gid="435"/>
   <tile gid="435"/>
   <tile gid="435"/>
   <tile gid="435"/>
   <tile gid="435"/>
   <tile gid="435"/>
   <tile gid="435"/>
   <tile gid="435"/>
   <tile gid="435"/>
   <tile gid="435"/>
   <tile gid="435"/>
   <tile gid="435"/>
   <tile gid="435"/>
   <tile gid="435"/>
   <tile gid="435"/>
   <tile gid="435"/>
   <tile/>
   <tile/>
   <tile/>
   <tile/>
   <tile/>
   <tile/>
   <tile/>
   <tile/>
   <tile/>
   <tile/>
   <tile/>
   <tile/>
   <tile/>
   <tile/>
   <tile/>
   <tile/>
   <tile/>
   <tile/>
   <tile/>
   <tile/>
   <tile/>
   <tile/>
   <tile/>
   <tile gid="103"/>
   <tile gid="103"/>
   <tile gid="103"/>
   <tile/>
   <tile/>
   <tile/>
   <tile/>
   <tile/>
   <tile/>
   <tile/>
   <tile/>
   <tile/>
   <tile/>
   <tile/>
   <tile gid="103"/>
   <tile/>
   <tile/>
   <tile/>
   <tile/>
   <tile/>
   <tile gid="435"/>
   <tile gid="435"/>
   <tile gid="435"/>
   <tile gid="435"/>
   <tile gid="435"/>
   <tile gid="435"/>
   <tile gid="435"/>
   <tile gid="435"/>
   <tile gid="435"/>
   <tile gid="435"/>
   <tile gid="435"/>
   <tile gid="435"/>
   <tile gid="435"/>
   <tile gid="435"/>
   <tile gid="435"/>
   <tile gid="435"/>
   <tile gid="435"/>
   <tile gid="435"/>
   <tile gid="435"/>
   <tile/>
   <tile/>
   <tile/>
   <tile/>
   <tile/>
   <tile/>
   <tile/>
   <tile/>
   <tile/>
   <tile/>
   <tile/>
   <tile/>
   <tile/>
   <tile/>
   <tile/>
   <tile/>
   <tile/>
   <tile/>
   <tile/>
   <tile/>
   <tile/>
   <tile/>
   <tile/>
   <tile/>
   <tile/>
   <tile gid="103"/>
   <tile/>
   <tile/>
   <tile/>
   <tile/>
   <tile/>
   <tile/>
   <tile/>
   <tile/>
   <tile/>
   <tile/>
   <tile/>
   <tile/>
   <tile/>
   <tile gid="103"/>
   <tile/>
   <tile gid="103"/>
   <tile gid="103"/>
   <tile/>
   <tile/>
   <tile/>
   <tile/>
   <tile/>
   <tile/>
   <tile/>
   <tile/>
   <tile/>
   <tile/>
   <tile/>
   <tile/>
   <tile/>
   <tile/>
   <tile/>
   <tile/>
   <tile/>
   <tile/>
   <tile/>
   <tile/>
   <tile/>
   <tile/>
   <tile/>
   <tile/>
   <tile/>
   <tile/>
   <tile/>
   <tile/>
   <tile/>
   <tile/>
   <tile/>
   <tile/>
   <tile/>
   <tile/>
   <tile/>
   <tile/>
   <tile/>
   <tile/>
   <tile/>
   <tile/>
   <tile/>
   <tile/>
   <tile/>
   <tile/>
   <tile/>
   <tile/>
   <tile gid="103"/>
   <tile/>
   <tile/>
   <tile/>
   <tile gid="103"/>
   <tile gid="103"/>
   <tile gid="103"/>
   <tile/>
   <tile/>
   <tile gid="103"/>
   <tile gid="103"/>
   <tile/>
   <tile/>
   <tile/>
   <tile/>
   <tile gid="103"/>
   <tile/>
   <tile gid="103"/>
   <tile/>
   <tile/>
   <tile/>
   <tile/>
   <tile/>
   <tile/>
   <tile/>
   <tile/>
   <tile/>
   <tile/>
   <tile/>
   <tile/>
   <tile/>
   <tile/>
   <tile/>
   <tile/>
   <tile/>
   <tile/>
   <tile/>
   <tile/>
   <tile/>
   <tile/>
   <tile/>
   <tile/>
   <tile/>
   <tile/>
   <tile/>
   <tile/>
   <tile/>
   <tile/>
   <tile/>
   <tile/>
   <tile/>
   <tile/>
   <tile/>
   <tile/>
   <tile/>
   <tile/>
   <tile/>
   <tile/>
   <tile/>
   <tile/>
   <tile/>
   <tile/>
   <tile/>
   <tile/>
   <tile gid="103"/>
   <tile gid="103"/>
   <tile gid="103"/>
   <tile gid="103"/>
   <tile/>
   <tile/>
   <tile gid="103"/>
   <tile/>
   <tile/>
   <tile gid="103"/>
   <tile/>
   <tile gid="103"/>
   <tile/>
   <tile/>
   <tile/>
   <tile/>
   <tile/>
   <tile/>
   <tile gid="103"/>
   <tile/>
   <tile/>
   <tile/>
   <tile/>
   <tile/>
   <tile/>
   <tile/>
   <tile/>
   <tile/>
   <tile/>
   <tile/>
   <tile/>
   <tile/>
   <tile/>
   <tile/>
   <tile/>
   <tile/>
   <tile/>
   <tile/>
   <tile/>
   <tile/>
   <tile/>
   <tile/>
   <tile/>
   <tile/>
   <tile/>
   <tile/>
   <tile/>
   <tile/>
   <tile/>
   <tile/>
   <tile/>
   <tile/>
   <tile/>
   <tile/>
   <tile/>
   <tile/>
   <tile/>
   <tile/>
   <tile/>
   <tile/>
   <tile/>
   <tile/>
   <tile/>
   <tile/>
   <tile/>
   <tile/>
   <tile/>
   <tile gid="103"/>
   <tile/>
   <tile/>
   <tile gid="103"/>
   <tile/>
   <tile/>
   <tile gid="103"/>
   <tile/>
   <tile gid="103"/>
   <tile/>
   <tile/>
   <tile gid="103"/>
   <tile gid="103"/>
   <tile gid="103"/>
   <tile gid="103"/>
   <tile gid="103"/>
   <tile/>
   <tile gid="99"/>
   <tile gid="99"/>
   <tile gid="99"/>
   <tile gid="99"/>
   <tile gid="99"/>
   <tile gid="99"/>
   <tile gid="99"/>
   <tile gid="99"/>
   <tile gid="99"/>
   <tile gid="99"/>
   <tile gid="99"/>
   <tile gid="99"/>
   <tile gid="99"/>
   <tile gid="99"/>
   <tile gid="99"/>
   <tile gid="99"/>
   <tile gid="99"/>
   <tile gid="99"/>
   <tile gid="99"/>
   <tile gid="99"/>
   <tile gid="99"/>
   <tile gid="99"/>
   <tile gid="99"/>
   <tile gid="99"/>
   <tile gid="99"/>
   <tile gid="99"/>
   <tile gid="99"/>
   <tile gid="99"/>
   <tile gid="99"/>
   <tile gid="99"/>
   <tile gid="99"/>
   <tile gid="99"/>
   <tile gid="99"/>
   <tile gid="99"/>
   <tile gid="99"/>
   <tile/>
   <tile/>
   <tile/>
   <tile/>
   <tile/>
   <tile/>
   <tile/>
   <tile/>
   <tile/>
   <tile/>
   <tile/>
   <tile/>
   <tile/>
   <tile/>
   <tile/>
   <tile gid="103"/>
   <tile/>
   <tile gid="103"/>
   <tile/>
   <tile/>
   <tile gid="103"/>
   <tile/>
   <tile gid="103"/>
   <tile/>
   <tile/>
   <tile/>
   <tile/>
   <tile/>
   <tile/>
   <tile gid="102"/>
   <tile gid="102"/>
   <tile gid="102"/>
   <tile gid="102"/>
   <tile gid="102"/>
   <tile gid="102"/>
   <tile gid="102"/>
   <tile gid="102"/>
   <tile gid="102"/>
   <tile gid="102"/>
   <tile gid="99"/>
   <tile gid="99"/>
   <tile gid="99"/>
   <tile gid="99"/>
   <tile gid="99"/>
   <tile gid="99"/>
   <tile gid="99"/>
   <tile gid="99"/>
   <tile gid="99"/>
   <tile gid="99"/>
   <tile gid="99"/>
   <tile gid="99"/>
   <tile gid="99"/>
   <tile gid="99"/>
   <tile gid="99"/>
   <tile gid="99"/>
   <tile gid="99"/>
   <tile gid="99"/>
   <tile gid="99"/>
   <tile gid="99"/>
   <tile gid="99"/>
   <tile gid="99"/>
   <tile gid="99"/>
   <tile gid="99"/>
   <tile gid="99"/>
   <tile/>
   <tile/>
   <tile/>
   <tile/>
   <tile/>
   <tile/>
   <tile/>
   <tile/>
   <tile/>
   <tile/>
   <tile/>
   <tile/>
   <tile/>
   <tile/>
   <tile/>
   <tile gid="103"/>
   <tile gid="103"/>
   <tile/>
   <tile/>
   <tile/>
   <tile gid="103"/>
   <tile gid="103"/>
   <tile/>
   <tile gid="103"/>
   <tile/>
   <tile/>
   <tile/>
   <tile/>
   <tile/>
  </data>
 </layer>
 <objectgroup id="7" name="Floor_Collisions">
  <properties>
   <property name="Collisions" type="bool" value="true"/>
  </properties>
  <object id="59" x="96" y="224" width="128"/>
  <object id="61" x="640.182" y="224" width="511.818"/>
  <object id="80" x="32" y="160" width="32"/>
  <object id="81" x="64" y="192" width="32"/>
  <object id="84" x="256" y="224" width="288"/>
  <object id="85" x="224" y="192" width="32"/>
 </objectgroup>
 <objectgroup id="10" name="Spikes">
  <properties>
   <property name="Spikes" type="bool" value="true"/>
  </properties>
  <object id="70" x="544" y="248" width="96"/>
 </objectgroup>
 <objectgroup id="8" name="Wall_Collision">
  <properties>
   <property name="Wall_Collisions" type="bool" value="true"/>
  </properties>
  <object id="78" x="32" y="0" height="160"/>
  <object id="82" x="64" y="160" height="32"/>
  <object id="83" x="96" y="192" height="32"/>
  <object id="86" x="224" y="192" height="32"/>
  <object id="87" x="256" y="192" height="32"/>
 </objectgroup>
</map>
